replication/atom_indices/EAS_01_atomIndicesCap.svg

<?xml version="1.0" encoding="UTF-8"?>
<svg baseProfile="full" version="1.1" viewBox="0 0 800 200" xml:space="preserve" xmlns="http://www.w3.org/2000/svg">

 <!-- END OF HEADER -->
<rect width="800" height="200" fill="#fff"> </rect>
<path class="bond-0" d="m190.91 95.332-0.532-38.26" fill="none" stroke="#000" stroke-width="2px"/>
<path class="bond-1" d="m190.91 95.332-29.174 9.9295" fill="none" stroke="#000" stroke-width="2px"/>
<path class="bond-1" d="m183.57 88.128-20.422 6.9507" fill="none" stroke="#000" stroke-width="2px"/>
<path class="bond-2" d="m141.72 102.48-8.027-10.732" fill="none" stroke="#000" stroke-width="2px"/>
<path class="bond-2" d="m133.69 91.743-8.027-10.732" fill="none" stroke="#00f" stroke-width="2px"/>
<path class="bond-3" d="m145.07 117.78-8.841 28.557" fill="none" stroke="#000" stroke-width="2px"/>
<path class="bond-4" d="m125.34 65.705 7.837-11.107" fill="none" stroke="#00f" stroke-width="2px"/>
<path class="bond-4" d="m133.17 54.598 7.836-11.107" fill="none" stroke="#000" stroke-width="2px"/>
<path class="bond-5" d="m105.64 73.557-8.6617 0.1204" fill="none" stroke="#00f" stroke-width="2px"/>
<path class="bond-5" d="m96.979 73.677-8.6614 0.1204" fill="none" stroke="#000" stroke-width="2px"/>
<path class="bond-6" d="m160.7 40.264 15.273 4.7288" fill="none" stroke="#000" stroke-width="2px"/>
<path class="bond-6" d="m160.28 49.746 10.691 3.3101" fill="none" stroke="#000" stroke-width="2px"/>
<path class="bond-7" d="m66.579 81.65-17.128 17.611" fill="none" stroke="#000" stroke-width="2px"/>
<path class="bond-8" d="m66.154 66.344-17.18-16.708" fill="none" stroke="#000" stroke-width="2px"/>
<path class="bond-9" d="m33.662 49.635-8.5641 8.8057" fill="none" stroke="#000" stroke-width="2px"/>
<path class="bond-9" d="m25.098 58.441-8.5641 8.8056" fill="none" stroke="#f00" stroke-width="2px"/>
<path class="bond-10" d="m16.96 82.552 8.5898 8.3542" fill="none" stroke="#f00" stroke-width="2px"/>
<path class="bond-10" d="m25.55 90.907 8.5898 8.3542" fill="none" stroke="#000" stroke-width="2px"/>
<path class="bond-11" d="m118.55 152.76-5.282 1.199" fill="none" stroke="#000" stroke-width="2px"/>
<path class="bond-11" d="m113.26 153.96-5.282 1.2" fill="none" stroke="#f00" stroke-width="2px"/>
<path class="bond-11" d="m120.58 161.72-5.282 1.2" fill="none" stroke="#000" stroke-width="2px"/>
<path class="bond-11" d="m115.3 162.92-5.282 1.2" fill="none" stroke="#f00" stroke-width="2px"/>
<text x="133.145" y="117.781" fill="#000000" font-family="sans-serif" font-size="15px"><tspan>C:1</tspan></text>
<text x="105.641" y="81.0112" fill="#0000FF" font-family="sans-serif" font-size="15px"><tspan>N:2</tspan></text>
<text x="132.112" y="43.4911" fill="#000000" font-family="sans-serif" font-size="15px"><tspan>C:3</tspan></text>
<text x="175.975" y="57.072" fill="#000000" font-family="sans-serif" font-size="15px"><tspan>C:4</tspan></text>
<text x="59.7271" y="81.6496" fill="#000000" font-family="sans-serif" font-size="15px"><tspan>C:5</tspan></text>
<text x="26.8099" y="49.6352" fill="#000000" font-family="sans-serif" font-size="15px"><tspan>C:6</tspan></text>
<text x="-5.71899" y="82.5525" fill="#FF0000" font-family="sans-serif" font-size="15px"><tspan>O:7</tspan></text>
<text x="27.7127" y="114.567" fill="#000000" font-family="sans-serif" font-size="15px"><tspan>C:8</tspan></text>
<text x="119.564" y="161.645" fill="#000000" font-family="sans-serif" font-size="15px"><tspan>C:9</tspan></text>
<text x="69.1635" y="171.815" fill="#FF0000" font-family="sans-serif" font-size="15px"><tspan>O:10</tspan></text>
<text x="70.3745" y="194" fill="#000000" font-family="sans-serif" font-size="12px"><tspan>comp402</tspan></text>
</svg>

<?xml version='1.0' encoding='iso-8859-1'?>
<svg version='1.1' baseProfile='full'
              xmlns='http://www.w3.org/2000/svg'
                      xmlns:rdkit='http://www.rdkit.org/xml'
                      xmlns:xlink='http://www.w3.org/1999/xlink'
                  xml:space='preserve'
width='800px' height='200px' viewBox='0 0 800 200'>
<!-- END OF HEADER -->
<rect style='opacity:1.0;fill:#FFFFFF;stroke:none' width='800' height='200' x='0' y='0'> </rect>
<path class='bond-0' d='M 190.909,95.3325 L 190.377,57.072' style='fill:none;fill-rule:evenodd;stroke:#000000;stroke-width:2px;stroke-linecap:butt;stroke-linejoin:miter;stroke-opacity:1' />
<path class='bond-1' d='M 190.909,95.3325 L 161.735,105.262' style='fill:none;fill-rule:evenodd;stroke:#000000;stroke-width:2px;stroke-linecap:butt;stroke-linejoin:miter;stroke-opacity:1' />
<path class='bond-1' d='M 183.574,88.1282 L 163.152,95.0789' style='fill:none;fill-rule:evenodd;stroke:#000000;stroke-width:2px;stroke-linecap:butt;stroke-linejoin:miter;stroke-opacity:1' />
<path class='bond-2' d='M 141.715,102.475 L 133.688,91.743' style='fill:none;fill-rule:evenodd;stroke:#000000;stroke-width:2px;stroke-linecap:butt;stroke-linejoin:miter;stroke-opacity:1' />
<path class='bond-2' d='M 133.688,91.743 L 125.661,81.0112' style='fill:none;fill-rule:evenodd;stroke:#0000FF;stroke-width:2px;stroke-linecap:butt;stroke-linejoin:miter;stroke-opacity:1' />
<path class='bond-3' d='M 145.07,117.781 L 136.229,146.338' style='fill:none;fill-rule:evenodd;stroke:#000000;stroke-width:2px;stroke-linecap:butt;stroke-linejoin:miter;stroke-opacity:1' />
<path class='bond-4' d='M 125.335,65.7052 L 133.172,54.5981' style='fill:none;fill-rule:evenodd;stroke:#0000FF;stroke-width:2px;stroke-linecap:butt;stroke-linejoin:miter;stroke-opacity:1' />
<path class='bond-4' d='M 133.172,54.5981 L 141.008,43.4911' style='fill:none;fill-rule:evenodd;stroke:#000000;stroke-width:2px;stroke-linecap:butt;stroke-linejoin:miter;stroke-opacity:1' />
<path class='bond-5' d='M 105.641,73.557 L 96.9793,73.6774' style='fill:none;fill-rule:evenodd;stroke:#0000FF;stroke-width:2px;stroke-linecap:butt;stroke-linejoin:miter;stroke-opacity:1' />
<path class='bond-5' d='M 96.9793,73.6774 L 88.3179,73.7978' style='fill:none;fill-rule:evenodd;stroke:#000000;stroke-width:2px;stroke-linecap:butt;stroke-linejoin:miter;stroke-opacity:1' />
<path class='bond-6' d='M 160.702,40.2641 L 175.975,44.9929' style='fill:none;fill-rule:evenodd;stroke:#000000;stroke-width:2px;stroke-linecap:butt;stroke-linejoin:miter;stroke-opacity:1' />
<path class='bond-6' d='M 160.277,49.7462 L 170.968,53.0563' style='fill:none;fill-rule:evenodd;stroke:#000000;stroke-width:2px;stroke-linecap:butt;stroke-linejoin:miter;stroke-opacity:1' />
<path class='bond-7' d='M 66.5794,81.6496 L 49.4513,99.2609' style='fill:none;fill-rule:evenodd;stroke:#000000;stroke-width:2px;stroke-linecap:butt;stroke-linejoin:miter;stroke-opacity:1' />
<path class='bond-8' d='M 66.1537,66.3436 L 48.9741,49.6352' style='fill:none;fill-rule:evenodd;stroke:#000000;stroke-width:2px;stroke-linecap:butt;stroke-linejoin:miter;stroke-opacity:1' />
<path class='bond-9' d='M 33.6622,49.6352 L 25.0981,58.4409' style='fill:none;fill-rule:evenodd;stroke:#000000;stroke-width:2px;stroke-linecap:butt;stroke-linejoin:miter;stroke-opacity:1' />
<path class='bond-9' d='M 25.0981,58.4409 L 16.534,67.2465' style='fill:none;fill-rule:evenodd;stroke:#FF0000;stroke-width:2px;stroke-linecap:butt;stroke-linejoin:miter;stroke-opacity:1' />
<path class='bond-10' d='M 16.9597,82.5525 L 25.5495,90.9067' style='fill:none;fill-rule:evenodd;stroke:#FF0000;stroke-width:2px;stroke-linecap:butt;stroke-linejoin:miter;stroke-opacity:1' />
<path class='bond-10' d='M 25.5495,90.9067 L 34.1393,99.2609' style='fill:none;fill-rule:evenodd;stroke:#000000;stroke-width:2px;stroke-linecap:butt;stroke-linejoin:miter;stroke-opacity:1' />
<path class='bond-11' d='M 118.547,152.761 L 113.265,153.96' style='fill:none;fill-rule:evenodd;stroke:#000000;stroke-width:2px;stroke-linecap:butt;stroke-linejoin:miter;stroke-opacity:1' />
<path class='bond-11' d='M 113.265,153.96 L 107.983,155.16' style='fill:none;fill-rule:evenodd;stroke:#FF0000;stroke-width:2px;stroke-linecap:butt;stroke-linejoin:miter;stroke-opacity:1' />
<path class='bond-11' d='M 120.581,161.716 L 115.299,162.916' style='fill:none;fill-rule:evenodd;stroke:#000000;stroke-width:2px;stroke-linecap:butt;stroke-linejoin:miter;stroke-opacity:1' />
<path class='bond-11' d='M 115.299,162.916 L 110.017,164.116' style='fill:none;fill-rule:evenodd;stroke:#FF0000;stroke-width:2px;stroke-linecap:butt;stroke-linejoin:miter;stroke-opacity:1' />
<text x='133.145' y='117.781' style='font-size:15px;font-style:normal;font-weight:normal;fill-opacity:1;stroke:none;font-family:sans-serif;text-anchor:start;fill:#000000' ><tspan>C:1</tspan></text>
<text x='105.641' y='81.0112' style='font-size:15px;font-style:normal;font-weight:normal;fill-opacity:1;stroke:none;font-family:sans-serif;text-anchor:start;fill:#0000FF' ><tspan>N:2</tspan></text>
<text x='132.112' y='43.4911' style='font-size:15px;font-style:normal;font-weight:normal;fill-opacity:1;stroke:none;font-family:sans-serif;text-anchor:start;fill:#000000' ><tspan>C:3</tspan></text>
<text x='175.975' y='57.072' style='font-size:15px;font-style:normal;font-weight:normal;fill-opacity:1;stroke:none;font-family:sans-serif;text-anchor:start;fill:#000000' ><tspan>C:4</tspan></text>
<text x='59.7271' y='81.6496' style='font-size:15px;font-style:normal;font-weight:normal;fill-opacity:1;stroke:none;font-family:sans-serif;text-anchor:start;fill:#000000' ><tspan>C:5</tspan></text>
<text x='26.8099' y='49.6352' style='font-size:15px;font-style:normal;font-weight:normal;fill-opacity:1;stroke:none;font-family:sans-serif;text-anchor:start;fill:#000000' ><tspan>C:6</tspan></text>
<text x='-5.71899' y='82.5525' style='font-size:15px;font-style:normal;font-weight:normal;fill-opacity:1;stroke:none;font-family:sans-serif;text-anchor:start;fill:#FF0000' ><tspan>O:7</tspan></text>
<text x='27.7127' y='114.567' style='font-size:15px;font-style:normal;font-weight:normal;fill-opacity:1;stroke:none;font-family:sans-serif;text-anchor:start;fill:#000000' ><tspan>C:8</tspan></text>
<text x='119.564' y='161.645' style='font-size:15px;font-style:normal;font-weight:normal;fill-opacity:1;stroke:none;font-family:sans-serif;text-anchor:start;fill:#000000' ><tspan>C:9</tspan></text>
<text x='69.1635' y='171.815' style='font-size:15px;font-style:normal;font-weight:normal;fill-opacity:1;stroke:none;font-family:sans-serif;text-anchor:start;fill:#FF0000' ><tspan>O:10</tspan></text>
<text x='70.3745' y='194' style='font-size:12px;font-style:normal;font-weight:normal;fill-opacity:1;stroke:none;font-family:sans-serif;text-anchor:start;fill:#000000' ><tspan>comp402</tspan></text>
</svg>
